src/assets/icons/delete-left.svg

<svg width="14" height="14" viewBox="0 0 14 14" fill="none" xmlns="http://www.w3.org/2000/svg">
<g id="delete-left">
<path id="Vector" d="M10.9277 5.33358L9.26202 6.99998L10.9277 8.66638C11.1476 8.88631 11.1476 9.24286 10.9277 9.4628C10.8181 9.57239 10.674 9.62793 10.5298 9.62793C10.3857 9.62793 10.2416 9.57314 10.132 9.4628L8.46635 7.7964L6.80071 9.4628C6.69111 9.57239 6.54699 9.62793 6.40287 9.62793C6.25875 9.62793 6.11463 9.57314 6.00504 9.4628C5.78511 9.24286 5.78511 8.88631 6.00504 8.66638L7.67069 6.99998L6.00504 5.33358C5.78511 5.11365 5.78511 4.7571 6.00504 4.53716C6.22497 4.31723 6.58077 4.31723 6.80071 4.53716L8.46635 6.20356L10.132 4.53716C10.3519 4.31723 10.7077 4.31723 10.9277 4.53716C11.1476 4.75785 11.1476 5.11365 10.9277 5.33358ZM14 3.24683V10.7531C14 11.4775 13.4108 12.0667 12.6871 12.0667H3.72463C3.26899 12.0667 2.85239 11.8355 2.61069 11.4497L0.141869 7.4969C-0.0472897 7.19514 -0.0472897 6.80482 0.141869 6.50231L2.61069 2.55025C2.85239 2.16367 3.26899 1.93323 3.72463 1.93323H12.6871C13.4108 1.93323 14 2.52247 14 3.24683ZM12.8748 3.24683C12.8748 3.14324 12.7907 3.05917 12.6871 3.05917H3.72463C3.66007 3.05917 3.59927 3.09295 3.56474 3.147L1.15822 6.99998L3.56474 10.853C3.59927 10.907 3.66007 10.9408 3.72463 10.9408H12.6871C12.7907 10.9408 12.8748 10.8567 12.8748 10.7531V3.24683Z" fill="black"/>
</g>
</svg>

<svg xmlns="http://www.w3.org/2000/svg" fill="none" viewBox="0 0 14 14"><path fill="#000" d="M10.928 5.334 9.262 7l1.666 1.666a.563.563 0 0 1-.796.797L8.466 7.796 6.801 9.463a.562.562 0 1 1-.796-.797L7.671 7 6.005 5.334a.563.563 0 0 1 .796-.797l1.665 1.667 1.666-1.667a.562.562 0 1 1 .796.797M14 3.247v7.506c0 .724-.59 1.314-1.313 1.314H3.725c-.456 0-.873-.232-1.114-.617L.14 7.497a.94.94 0 0 1 0-.995l2.47-3.952a1.3 1.3 0 0 1 1.114-.617h8.962c.724 0 1.313.59 1.313 1.314m-1.125 0a.19.19 0 0 0-.188-.188H3.725a.19.19 0 0 0-.16.088L1.158 7l2.407 3.853a.19.19 0 0 0 .16.088h8.962a.19.19 0 0 0 .188-.188z"/></svg>
